packages/core/src/svgs/hydra.svg

<svg width="24" height="24" viewBox="0 0 24 24" fill="none" xmlns="http://www.w3.org/2000/svg">
<g clip-path="url(#clip0_31_11654)">
<path d="M0 0H24V24H0V0Z" fill="#F0F3FA"/>
<path d="M13.5944 7.41423H13.9115L13.9415 6.95994H13.5944V7.41423ZM13.9115 6.35137L13.5601 6.44137L13.5944 6.77566H13.9758L13.9115 6.34709V6.35137ZM13.8172 6.13709L13.5601 5.7728L13.2772 5.98709L13.5001 6.28709L13.8172 6.13709ZM13.4015 5.6528L12.9901 5.40852L12.8015 5.6228L13.1486 5.83709L13.4058 5.6528H13.4015ZM12.2915 5.46852L12.6772 5.5628L12.8315 5.34852L12.4201 5.25852L12.2915 5.4728V5.46852ZM12.1029 5.4428L12.1972 5.22852H11.6615V5.4428H12.1029ZM10.4058 16.5857H10.0886L10.0586 17.0399H10.4058V16.5857ZM10.0886 17.6485L10.4401 17.5585L10.4058 17.2242H10.0286L10.0886 17.6528V17.6485ZM10.1829 17.8628L10.4401 18.2271L10.7229 18.0128L10.5001 17.7128L10.1829 17.8628ZM10.5986 18.3471L11.0101 18.5914L11.1986 18.3771L10.8515 18.1628L10.5944 18.3471H10.5986ZM11.7086 18.5314L11.3229 18.4371L11.1686 18.6514L11.5801 18.7414L11.7086 18.5271V18.5314ZM11.8972 18.5571L11.8029 18.7714H12.3429V18.5571H11.8972ZM16.9458 11.0399L17.1044 11.3014L17.5329 11.0999L17.3572 10.8128L16.9458 11.0399ZM17.5201 10.7228L17.7129 11.0357L18.0644 10.7742L17.8072 10.5299L17.5201 10.7228ZM18.4115 10.1957L18.0772 10.0671L17.9144 10.4014L18.2101 10.5857L18.4115 10.1957ZM18.4458 10.0028L18.4586 9.53994L18.1715 9.48852L18.1544 9.8828L18.4458 10.0028ZM18.0558 8.99137L18.1629 9.35137L18.4329 9.37709L18.3129 8.99137H18.0558ZM17.7686 8.44709L17.9872 8.81566L18.2272 8.78994L17.9615 8.34423L17.7686 8.45137V8.44709ZM7.05436 12.9599L6.90008 12.6985L6.4715 12.8999L6.64293 13.1871L7.05436 12.9599ZM6.48008 13.2771L6.2915 12.9642L5.93579 13.2257L6.19293 13.4699L6.48008 13.2771ZM5.58865 13.8042L5.92293 13.9328L6.08579 13.5985L5.79008 13.4142L5.58865 13.8042ZM5.55865 13.9971L5.5415 14.4599L5.82865 14.5114L5.85008 14.1171L5.55865 13.9971ZM5.94436 15.0085L5.83722 14.6485L5.56722 14.6228L5.68722 15.0085H5.94436ZM6.2315 15.5485L6.01293 15.1799L5.77293 15.2099L6.03865 15.6557L6.2315 15.5485Z" fill="#414141"/>
<path d="M19.4485 12.7799C19.4485 12.7799 19.4913 12.4156 19.547 11.8456C19.573 11.6995 19.5422 11.5489 19.461 11.4247C19.3798 11.3005 19.2542 11.2119 19.1099 11.1771L18.9385 11.3314C18.977 11.3056 19.037 11.2799 19.0585 11.4128C19.0885 11.6056 18.8356 12.1328 18.8356 12.1328L18.7585 11.4171L18.6042 11.6142C18.6385 12.5142 18.0042 12.8956 17.8542 13.1271C17.7085 13.3628 17.7042 13.6756 17.7042 13.6756C17.7042 13.6756 17.6399 14.5585 17.3827 14.9785C17.1256 15.3942 16.9242 15.4242 16.4913 15.5314C16.0627 15.6342 15.347 15.1028 15.3299 15.0856C15.3427 15.1028 15.7499 15.6728 16.3285 15.7928C16.9156 15.9128 17.4642 15.4456 17.6999 15.0514C17.9442 14.6614 17.957 14.3485 17.957 14.3485C17.957 14.3485 17.8756 13.6328 18.0427 13.3028C18.2099 12.9771 18.4713 12.9085 18.4713 12.9085C17.6399 14.1342 18.5013 15.0085 18.5013 15.0085L18.0513 15.7414C17.6485 16.3971 16.7827 16.6114 16.7827 16.6114C15.197 16.9114 14.3827 15.0085 14.3827 15.0085L15.0513 15.7756L15.2656 15.5442C15.0213 15.4071 14.7085 14.1728 14.7085 14.1728C14.7085 14.1728 14.4727 12.9471 13.8213 12.5056C13.4527 12.2571 12.8785 12.2914 12.4542 12.3771L12.4799 12.2828C13.187 11.6485 15.3342 11.8671 15.797 11.9828C16.2685 12.1114 17.0099 11.8799 17.0099 11.8799L16.9027 12.1799C17.5885 12.0514 18.4627 11.2542 18.4627 11.2542C18.4627 11.2542 19.2385 10.2299 19.1356 9.20136C19.0285 8.17279 18.1242 7.51707 18.1242 7.51707L18.4799 7.32422C17.7513 7.2685 17.0913 6.31707 17.0913 6.31707C16.877 6.01707 16.3885 6.17993 16.3885 6.17993L15.587 5.63993C15.0985 5.30993 14.7685 5.66993 14.7685 5.66993L14.8199 5.89279C14.8156 5.84564 14.8242 5.78136 14.9527 5.8285C15.1637 5.97784 15.3477 6.16188 15.497 6.37279L14.8113 6.08136L14.9099 6.3085C15.7456 6.72422 15.7756 7.44422 15.9213 7.67993C16.0627 7.91564 16.3413 8.0785 16.3413 8.0785C16.3413 8.0785 17.1085 8.56707 17.3613 8.98707C17.6142 9.41136 17.5413 9.59136 17.4213 10.0071C17.3056 10.4185 16.4442 10.7528 16.4442 10.7528C16.4442 10.7528 17.177 10.7014 17.5799 10.2685C17.9785 9.83993 17.8242 9.15422 17.5885 8.75993C17.4634 8.53624 17.2872 8.34533 17.0742 8.20279C17.0742 8.20279 16.3885 7.91564 16.1699 7.61564C15.9556 7.31564 16.0242 7.06279 16.0242 7.06279C16.727 8.35707 17.9442 8.07422 17.9442 8.07422L18.3856 8.81136C18.7799 9.47136 18.5485 10.2985 18.5485 10.2985C18.0385 11.7685 15.9085 11.5071 15.9085 11.5071L16.937 11.3271L16.8299 11.0356C16.5813 11.1685 15.3127 10.8214 15.3127 10.8214C15.3127 10.8214 14.0785 10.4099 13.3627 10.7356C12.9513 10.9242 12.7027 11.4214 12.5656 11.8156L12.497 11.7471C12.2699 10.8471 13.5385 9.16707 13.8813 8.84136C14.2285 8.50707 14.387 7.7785 14.387 7.7785L14.6099 8.02279C14.8327 7.37993 14.5456 6.26136 14.5456 6.26136C14.5456 6.26136 14.0056 5.10422 13.0242 4.67993C12.0385 4.25136 10.997 4.67993 10.997 4.67993V4.28564C10.5813 4.86422 9.39418 4.93707 9.39418 4.93707C9.01275 4.96707 8.92275 5.45136 8.92275 5.45136L8.03132 5.84993C7.49132 6.09422 7.64989 6.5485 7.64989 6.5485L7.87703 6.61279C7.83417 6.59564 7.78275 6.55279 7.88989 6.47136C8.04846 6.35136 8.64846 6.29136 8.64846 6.29136L8.04846 6.71564L8.30132 6.74564C9.09418 6.26136 9.75846 6.59564 10.0456 6.59564C10.3285 6.59564 10.6156 6.44136 10.6156 6.44136C10.6156 6.44136 11.4385 6.04707 11.9442 6.04707C12.4542 6.04707 12.5785 6.19707 12.8956 6.50136C13.2127 6.80564 13.0885 7.6885 13.0885 7.6885C13.0885 7.6885 13.4056 7.04564 13.217 6.50136C13.0242 5.95707 12.3256 5.74279 11.8499 5.74279C11.3785 5.74279 11.0913 5.89707 11.0913 5.89707C11.0913 5.89707 10.4913 6.32136 10.1056 6.35136C9.72846 6.38136 9.5356 6.19707 9.5356 6.19707C11.057 6.26136 11.4085 5.10422 11.4085 5.10422H12.2956C13.0885 5.10422 13.7227 5.71279 13.7227 5.71279C14.7856 6.85279 13.5299 8.47279 13.4999 8.50707L13.847 7.56422L13.5299 7.50422C13.5299 7.7785 12.5785 8.66136 12.5785 8.66136C12.5785 8.66136 11.597 9.47564 11.5327 10.2385C11.4985 10.6756 11.8327 11.1385 12.1199 11.4428L12.0342 11.4685C11.1085 11.2114 10.2342 9.29136 10.1142 8.84564C9.98989 8.38707 9.4156 7.88564 9.4156 7.88564L9.74989 7.82564C9.28703 7.31993 8.12989 6.98564 8.12989 6.98564C8.12989 6.98564 6.81846 6.84422 5.93989 7.43993C5.05703 8.03564 4.91132 9.11136 4.91132 9.11136L4.55132 8.91422C4.85989 9.5485 4.32846 10.5685 4.32846 10.5685C4.15703 10.8985 4.54703 11.2199 4.54703 11.2199C4.54703 11.2199 4.50418 11.5842 4.45275 12.1542C4.42678 12.3004 4.45755 12.4509 4.53878 12.5752C4.62001 12.6994 4.74559 12.788 4.88989 12.8228L5.06132 12.6685C5.02275 12.6942 4.96275 12.7199 4.94132 12.5871C4.91132 12.3942 5.16418 11.8671 5.16418 11.8671L5.24132 12.5828L5.3956 12.3856C5.36132 11.4856 5.9956 11.1042 6.1456 10.8728C6.29132 10.6371 6.2956 10.3242 6.2956 10.3242C6.2956 10.3242 6.35989 9.44136 6.61703 9.02564C6.87418 8.60564 7.0756 8.57993 7.51275 8.4685C7.94132 8.36564 8.65275 8.89707 8.66989 8.91422C8.42374 8.57613 8.07263 8.32899 7.67132 8.21136C7.08418 8.08707 6.53989 8.55422 6.29989 8.9485C6.0556 9.34279 6.04703 9.65564 6.04703 9.65564C6.04703 9.65564 6.12418 10.3671 5.96132 10.6928C5.78989 11.0228 5.53275 11.0871 5.53275 11.0871C6.35989 9.86564 5.49846 8.98707 5.49846 8.98707L5.94846 8.2585C6.35132 7.60279 7.22132 7.3885 7.22132 7.3885C8.80703 7.08422 9.62132 8.99136 9.62132 8.99136L8.94846 8.21993L8.73417 8.45564C8.97846 8.59279 9.29132 9.82707 9.29132 9.82707C9.29132 9.82707 9.52703 11.0528 10.1785 11.4899C10.5556 11.7471 11.1385 11.7042 11.5627 11.6185L11.5413 11.6956C10.8599 12.3556 8.66989 12.1328 8.20275 12.0128C7.73132 11.8928 6.98989 12.1199 6.98989 12.1199L7.09703 11.8156C6.41132 11.9485 5.53703 12.7456 5.53703 12.7456C5.53703 12.7456 4.76132 13.7699 4.86846 14.7985C4.97132 15.8271 5.8756 16.4828 5.8756 16.4828L5.51989 16.6799C6.24846 16.7356 6.90846 17.6828 6.90846 17.6828C7.12275 17.9828 7.61132 17.8199 7.61132 17.8199L8.41275 18.3599C8.90132 18.6899 9.23132 18.3299 9.23132 18.3299L9.17989 18.1071C9.18418 18.1542 9.1756 18.2185 9.04703 18.1714C8.83612 18.022 8.65208 17.838 8.50275 17.6271L9.18846 17.9185L9.08989 17.6914C8.25417 17.2756 8.22418 16.5556 8.08275 16.3199C7.94132 16.0799 7.66275 15.9214 7.66275 15.9214C7.66275 15.9214 6.89132 15.4328 6.63846 15.0128C6.3856 14.5885 6.46275 14.4085 6.57846 13.9928C6.69418 13.5814 7.5556 13.2471 7.5556 13.2471C7.5556 13.2471 6.82275 13.2985 6.41989 13.7314C6.02132 14.1599 6.1756 14.8456 6.41132 15.2399C6.65132 15.6385 6.9256 15.7971 6.9256 15.7971C6.9256 15.7971 7.61132 16.0885 7.82989 16.3885C8.04418 16.6885 7.9756 16.9371 7.9756 16.9371C7.27275 15.6428 6.0556 15.9299 6.0556 15.9299C6.0556 15.9299 6.01275 15.8485 5.61418 15.1928C5.21989 14.5328 5.45132 13.7014 5.45132 13.7014C5.96132 12.2314 8.09132 12.4971 8.09132 12.4971L7.06703 12.6728L7.16989 12.9685C7.41846 12.8314 8.68703 13.1828 8.68703 13.1828C8.68703 13.1828 9.92132 13.5899 10.637 13.2685C11.057 13.0756 11.3056 12.5699 11.4385 12.1756L11.4985 12.2314C11.7556 13.1314 10.4656 14.8285 10.1227 15.1585C9.77132 15.4928 9.61275 16.2214 9.61275 16.2214L9.39418 15.9771C9.17132 16.6199 9.45417 17.7385 9.45417 17.7385C9.45417 17.7385 9.99418 18.8956 10.9756 19.3199C11.9613 19.7485 13.007 19.3199 13.007 19.3199V19.7142C13.4185 19.1356 14.6056 19.0628 14.6056 19.0628C14.9913 19.0328 15.0813 18.5485 15.0813 18.5485L15.9685 18.1499C16.5085 17.9056 16.3542 17.4514 16.3542 17.4514L16.1227 17.3871C16.1656 17.4042 16.217 17.4471 16.1142 17.5285C15.9556 17.6485 15.3513 17.7085 15.3513 17.7085L15.9513 17.2842L15.7027 17.2542C14.9099 17.7385 14.2456 17.4042 13.9585 17.4042C13.6713 17.4042 13.3885 17.5585 13.3885 17.5585C13.3885 17.5585 12.5613 17.9528 12.0556 17.9528C11.5499 17.9528 11.4213 17.8028 11.1042 17.4985C10.787 17.1942 10.9156 16.3114 10.9156 16.3114C10.9156 16.3114 10.5985 16.9542 10.787 17.4985C10.9756 18.0428 11.6742 18.2571 12.1499 18.2571C12.6256 18.2571 12.9127 18.1028 12.9127 18.1028C12.9127 18.1028 13.5127 17.6785 13.8942 17.6485C14.2756 17.6185 14.4642 17.8028 14.4642 17.8028C12.9427 17.7385 12.5956 18.8956 12.5956 18.8956H11.7085C11.1773 18.8613 10.6738 18.6466 10.2813 18.2871C9.21418 17.1471 10.4742 15.5271 10.5042 15.4928L10.1527 16.4356L10.4699 16.4956C10.4699 16.2214 11.4213 15.3385 11.4213 15.3385C11.4213 15.3385 12.407 14.5242 12.467 13.7614C12.5056 13.3242 12.1713 12.8699 11.8842 12.5614L11.9699 12.5356C12.8999 12.8014 13.7699 14.7085 13.8856 15.1542C14.0142 15.6128 14.5842 16.1142 14.5842 16.1142L14.2542 16.1742C14.7127 16.6799 15.8699 17.0142 15.8699 17.0142C15.8699 17.0142 17.1813 17.1556 18.0642 16.5599C18.9427 15.9599 19.0927 14.8885 19.0927 14.8885L19.4485 15.0856C19.1356 14.4514 19.6713 13.4314 19.6713 13.4314C19.8427 13.1056 19.4485 12.7799 19.4485 12.7799ZM16.6842 6.52279C16.6842 6.52279 16.8513 6.43279 16.8813 6.47993L17.0527 6.77136C17.0527 6.77136 16.8685 6.77136 16.6842 6.52279ZM9.37703 5.3785C9.37703 5.3785 9.37703 5.1985 9.44132 5.1985H9.78846C9.78846 5.1985 9.69417 5.3485 9.37703 5.3785ZM4.71418 10.8042C4.71418 10.8042 4.55132 10.7142 4.5856 10.6585L4.76132 10.3714C4.76132 10.3714 4.84703 10.5256 4.71846 10.7999L4.71418 10.8042ZM7.3156 17.4771C7.3156 17.4771 7.14846 17.5671 7.11846 17.5156L6.94703 17.2242C6.94703 17.2242 7.12703 17.2285 7.3156 17.4771ZM14.6227 18.6214C14.6227 18.6214 14.6227 18.8014 14.5585 18.8014H14.2113C14.2113 18.8014 14.3056 18.6514 14.6227 18.6214ZM19.4185 13.3414L19.2385 13.6285C19.2385 13.6285 19.1527 13.4742 19.2813 13.1999C19.2813 13.1999 19.4527 13.2856 19.4185 13.3414Z" fill="#414141"/>
<path d="M15.1542 15.9045L15.5485 16.1616L15.7242 15.8745L15.3171 15.643L15.1542 15.9045ZM16.2042 16.1144L15.8871 15.9687L15.6942 16.2816L16.11 16.4445L16.2042 16.1102V16.1144ZM16.7571 16.1059L16.3714 16.1359L16.35 16.4745L16.8042 16.4487L16.7614 16.1059H16.7571ZM17.3271 15.9002L16.9585 16.0802L16.9971 16.3802L17.4257 16.1659L17.3271 15.9002ZM17.4471 15.8273L17.5585 16.063L17.85 15.7716L17.7214 15.5573L17.4471 15.8273ZM18.2614 15.1587L18.0728 15.0516L17.8457 15.4159L17.9914 15.6045L18.2614 15.1587ZM8.84567 8.09588L8.45138 7.83874L8.27567 8.12588L8.6871 8.35731L8.84567 8.09588ZM7.79567 7.88588L8.11281 8.03159L8.30567 7.71874L7.88995 7.55588L7.79567 7.89016V7.88588ZM7.24281 7.89445L7.62852 7.86445L7.64995 7.52588L7.19567 7.55159L7.23852 7.89445H7.24281ZM6.67281 8.10016L7.04138 7.92016L7.00281 7.62017L6.57424 7.83445L6.67281 8.10016ZM6.55281 8.17302L6.44138 7.93731L6.14995 8.22874L6.27853 8.44302L6.55281 8.17302ZM5.73853 8.84159L5.9271 8.94874L6.15424 8.58445L6.01281 8.39588L5.73853 8.84159Z" fill="#414141"/>
<path d="M12.75 6.94263C11.6682 6.80114 10.5685 6.97994 9.58719 7.45691L9.81005 7.61977C10.7342 7.19614 11.7612 7.0488 12.7672 7.19548L12.75 6.94691V6.94263ZM14.2072 16.3798C13.2643 16.8083 12.2101 16.9583 11.1815 16.7955V17.0398C12.2593 17.1989 13.3602 17.0395 14.3486 16.5812L14.2029 16.3798H14.2072ZM7.28148 13.7612L7.04576 13.8555C7.45468 14.8412 8.1582 15.6764 9.06005 16.2469V15.9512C8.2677 15.4099 7.65096 14.6486 7.28576 13.7612H7.28148ZM17.0615 12.3941C16.9747 13.3931 16.5725 14.3387 15.9129 15.0941L16.1572 15.1926C16.8302 14.3991 17.2365 13.4141 17.3186 12.3769L17.0615 12.3941ZM14.9572 7.75691V8.05263C15.7513 8.59316 16.3696 9.35452 16.7358 10.2426L16.9629 10.1312C16.5531 9.15317 15.853 8.32445 14.9572 7.75691ZM7.83862 8.82834C7.16326 9.63547 6.76247 10.6367 6.69434 11.6869L6.95148 11.6226C7.03244 10.6478 7.41434 9.7223 8.04434 8.97405L7.83862 8.82834Z" fill="#0E0E0E"/>
</g>
<defs>
<clipPath id="clip0_31_11654">
<rect width="24" height="24" fill="white"/>
</clipPath>
</defs>
</svg>

<svg xmlns="http://www.w3.org/2000/svg" width="24" height="24" fill="none" viewBox="0 0 24 24"><g clip-path="url(#a)"><path fill="#F0F3FA" d="M0 0h24v24H0z"/><path fill="#414141" d="M13.594 7.414h.318l.03-.454h-.348zm.318-1.063-.352.09.034.335h.382l-.065-.429zm-.095-.214-.257-.364-.283.214.223.3zm-.415-.484-.412-.244-.188.214.347.214.257-.184zm-1.11-.184.385.094.155-.214-.412-.09-.129.214zm-.19-.026.095-.214h-.535v.214zm-1.696 11.143h-.317l-.03.454h.347zm-.317 1.063.351-.09-.034-.335h-.377l.06.429zm.094.214.257.364.283-.214-.223-.3zm.416.484.411.244.189-.214-.348-.214-.257.184zm1.11.184-.386-.094-.154.214.411.09.129-.214zm.188.026-.094.214h.54v-.214zm5.049-7.517.158.261.429-.201-.176-.287zm.574-.317.193.313.351-.262-.257-.244zm.892-.527-.335-.129-.163.334.296.185zm.034-.193.013-.463-.287-.051-.018.394zm-.39-1.012.107.36.27.026-.12-.386zm-.287-.544.218.369.24-.026-.265-.446-.193.107zM7.054 12.96l-.154-.262-.429.202.172.287zm-.574.317-.189-.313-.355.262.257.244zm-.891.527.334.129.163-.335-.296-.184zm-.03.193-.018.463.288.051.021-.394zm.385 1.011-.107-.36-.27-.025.12.386zm.287.54-.218-.368-.24.03.266.446z"/><path fill="#414141" d="M19.449 12.78s.042-.364.098-.934a.583.583 0 0 0-.437-.669l-.171.154c.038-.025.098-.051.12.082.03.193-.223.72-.223.72l-.077-.716-.155.197c.035.9-.6 1.282-.75 1.513-.145.236-.15.549-.15.549s-.064.883-.321 1.303c-.257.415-.459.445-.892.552-.428.103-1.144-.428-1.161-.445.013.017.42.587.998.707.588.12 1.136-.347 1.372-.742.244-.39.257-.703.257-.703s-.081-.715.086-1.045c.167-.326.428-.395.428-.395-.831 1.226.03 2.1.03 2.1l-.45.733c-.402.656-1.268.87-1.268.87-1.586.3-2.4-1.603-2.4-1.603l.668.768.215-.232c-.245-.137-.557-1.371-.557-1.371s-.236-1.226-.888-1.667c-.368-.249-.942-.215-1.367-.129l.026-.094c.707-.634 2.854-.416 3.317-.3.471.128 1.213-.103 1.213-.103l-.107.3c.686-.129 1.56-.926 1.56-.926s.775-1.024.673-2.053c-.107-1.028-1.012-1.684-1.012-1.684l.356-.193c-.729-.055-1.389-1.007-1.389-1.007-.214-.3-.703-.137-.703-.137l-.801-.54c-.489-.33-.819.03-.819.03l.052.223c-.004-.047.004-.112.133-.064.21.149.395.333.544.544l-.686-.292.099.228c.836.415.866 1.135 1.011 1.37.142.237.42.4.42.4s.767.488 1.02.908c.253.424.18.604.06 1.02-.115.412-.977.746-.977.746s.733-.052 1.136-.485c.399-.428.244-1.114.009-1.508a1.6 1.6 0 0 0-.515-.557s-.686-.287-.904-.587c-.214-.3-.146-.553-.146-.553.703 1.294 1.92 1.011 1.92 1.011l.442.737c.394.66.163 1.488.163 1.488-.51 1.47-2.64 1.208-2.64 1.208l1.028-.18-.107-.291c-.249.133-1.517-.215-1.517-.215s-1.235-.411-1.95-.085c-.412.188-.66.685-.797 1.08l-.069-.069c-.227-.9 1.042-2.58 1.384-2.906.348-.334.506-1.062.506-1.062l.223.244c.223-.643-.064-1.762-.064-1.762s-.54-1.157-1.522-1.581c-.985-.429-2.027 0-2.027 0v-.394c-.416.578-1.603.651-1.603.651-.381.03-.471.514-.471.514l-.892.399c-.54.244-.381.699-.381.699l.227.064c-.043-.017-.094-.06.013-.142.158-.12.758-.18.758-.18l-.6.425.253.03c.793-.485 1.457-.15 1.745-.15.283 0 .57-.155.57-.155s.822-.394 1.328-.394c.51 0 .634.15.952.454s.192 1.188.192 1.188.318-.643.129-1.188c-.193-.544-.891-.758-1.367-.758-.471 0-.759.154-.759.154s-.6.424-.985.454c-.378.03-.57-.154-.57-.154 1.521.064 1.873-1.093 1.873-1.093h.887c.793 0 1.427.609 1.427.609 1.063 1.14-.193 2.76-.223 2.794l.347-.943-.317-.06c0 .275-.951 1.157-.951 1.157s-.982.815-1.046 1.578c-.034.437.3.9.587 1.204l-.086.026c-.926-.258-1.8-2.178-1.92-2.623-.124-.459-.698-.96-.698-.96l.334-.06c-.463-.506-1.62-.84-1.62-.84s-1.312-.142-2.19.454C5.057 8.036 4.91 9.11 4.91 9.11l-.36-.197c.309.635-.223 1.655-.223 1.655-.171.33.219.65.219.65s-.043.365-.094.935a.583.583 0 0 0 .437.669l.171-.155c-.038.026-.098.052-.12-.08-.03-.194.223-.72.223-.72l.077.715.155-.197c-.035-.9.6-1.282.75-1.513.145-.236.15-.549.15-.549s.064-.883.321-1.298c.257-.42.459-.446.896-.557.428-.103 1.14.428 1.157.445a1.9 1.9 0 0 0-.999-.703c-.587-.124-1.131.343-1.371.737-.244.395-.253.708-.253.708s.077.711-.086 1.037c-.171.33-.428.394-.428.394.827-1.221-.035-2.1-.035-2.1l.45-.729c.403-.655 1.273-.87 1.273-.87 1.586-.304 2.4 1.603 2.4 1.603l-.673-.771-.214.236c.244.137.557 1.371.557 1.371s.236 1.226.887 1.663c.378.257.96.214 1.385.128l-.022.078c-.681.66-2.871.437-3.338.317-.472-.12-1.213.107-1.213.107l.107-.304c-.686.132-1.56.93-1.56.93s-.776 1.024-.669 2.053c.103 1.028 1.008 1.684 1.008 1.684l-.356.197c.728.056 1.388 1.003 1.388 1.003.215.3.703.137.703.137l.802.54c.488.33.818-.03.818-.03l-.051-.223c.004.047-.004.111-.133.064a2.3 2.3 0 0 1-.544-.544l.685.292-.098-.228c-.836-.415-.866-1.135-1.007-1.371-.142-.24-.42-.399-.42-.399s-.772-.488-1.025-.908c-.252-.425-.175-.604-.06-1.02.116-.412.978-.746.978-.746s-.733.052-1.136.484c-.399.429-.244 1.115-.009 1.509.24.399.515.557.515.557s.685.291.904.591c.214.3.146.55.146.55-.703-1.295-1.92-1.008-1.92-1.008s-.043-.082-.442-.737c-.394-.66-.163-1.492-.163-1.492.51-1.47 2.64-1.204 2.64-1.204l-1.024.176.103.296c.248-.138 1.517.214 1.517.214s1.234.407 1.95.085c.42-.192.669-.698.801-1.092l.06.055c.258.9-1.032 2.598-1.375 2.928-.352.334-.51 1.062-.51 1.062l-.219-.244c-.223.643.06 1.761.06 1.761s.54 1.158 1.522 1.582c.985.428 2.031 0 2.031 0v.394c.412-.578 1.599-.651 1.599-.651.385-.03.475-.514.475-.514l.888-.4c.54-.243.385-.698.385-.698l-.231-.064c.043.017.094.06-.009.142-.158.12-.763.18-.763.18l.6-.425-.248-.03c-.793.484-1.457.15-1.744.15-.288 0-.57.154-.57.154s-.828.395-1.333.395c-.506 0-.635-.15-.952-.454s-.188-1.188-.188-1.188-.318.643-.129 1.188.887.758 1.363.758.763-.154.763-.154.6-.425.981-.455c.382-.03.57.155.57.155-1.521-.065-1.868 1.093-1.868 1.093h-.887a2.34 2.34 0 0 1-1.428-.609c-1.067-1.14.193-2.76.223-2.794l-.351.943.317.06c0-.275.951-1.157.951-1.157s.986-.815 1.046-1.578c.039-.437-.296-.891-.583-1.2l.086-.025c.93.265 1.8 2.173 1.916 2.618.128.459.698.96.698.96l-.33.06c.459.506 1.616.84 1.616.84s1.311.142 2.194-.454c.879-.6 1.029-1.671 1.029-1.671l.355.197c-.312-.635.223-1.655.223-1.655.172-.325-.223-.651-.223-.651m-2.765-6.257s.167-.09.197-.043l.172.291s-.184 0-.369-.248M9.377 5.379s0-.18.064-.18h.347s-.094.15-.411.18m-4.663 5.425s-.163-.09-.128-.146l.175-.287s.086.155-.043.429zm2.602 6.673s-.168.09-.198.039l-.171-.292s.18.005.369.253m7.307 1.144s0 .18-.064.18h-.348s.095-.15.412-.18m4.796-5.28-.18.288s-.086-.155.042-.43c0 0 .172.087.138.142"/><path fill="#414141" d="m15.154 15.905.395.257.175-.287-.407-.232zm1.05.21-.317-.146-.193.313.416.163.094-.335zm.553-.01-.386.03-.021.34.454-.026-.043-.343zm.57-.205-.369.18.04.3.428-.214zm.12-.073.111.236.292-.291-.129-.215zm.814-.668-.188-.107-.227.364.145.188zM8.846 8.096l-.395-.257-.175.287.411.231zm-1.05-.21.317.146.193-.313-.416-.163-.094.334zm-.553.008.386-.03.021-.338-.454.026.043.342zm-.57.206.368-.18-.038-.3-.429.214zm-.12.073-.112-.236-.291.292.129.214zm-.814.669.188.107.227-.365-.141-.188z"/><path fill="#0E0E0E" d="M12.75 6.943a5.6 5.6 0 0 0-3.163.514l.223.163a5.27 5.27 0 0 1 2.957-.425l-.017-.248zm1.457 9.437a5.3 5.3 0 0 1-3.026.416v.244c1.078.159 2.18 0 3.168-.459l-.146-.201zM7.281 13.76l-.235.095a5.18 5.18 0 0 0 2.014 2.39v-.295a4.9 4.9 0 0 1-1.774-2.19zm9.78-1.367a4.73 4.73 0 0 1-1.148 2.7l.244.099a4.96 4.96 0 0 0 1.162-2.816zm-2.104-4.637v.296a4.9 4.9 0 0 1 1.779 2.19l.227-.112a5.2 5.2 0 0 0-2.006-2.374M7.84 8.828a4.95 4.95 0 0 0-1.145 2.859l.257-.064c.081-.975.463-1.9 1.093-2.649z"/></g><defs><clipPath id="a"><path fill="#fff" d="M0 0h24v24H0z"/></clipPath></defs></svg>
